packages/icons/svg/32/Message.svg

<svg width="32" height="32" viewBox="0 0 32 32" fill="none" xmlns="http://www.w3.org/2000/svg">
<path fill-rule="evenodd" clip-rule="evenodd" d="M28 10.7981L16 18.7981L4 10.7981V9C4 7.89543 4.89543 7 6 7H26C27.1046 7 28 7.89543 28 9V10.7981ZM28 12.7V23C28 24.1046 27.1046 25 26 25H6C4.89543 25 4 24.1046 4 23V12.7L16 20.7L28 12.7Z" fill="#858585"/>
</svg>

<svg width="32" height="32" fill="none" xmlns="http://www.w3.org/2000/svg" viewBox="0 0 32 32"><path fill-rule="evenodd" clip-rule="evenodd" d="M28 10.798l-12 8-12-8V9a2 2 0 012-2h20a2 2 0 012 2v1.798zm0 1.902V23a2 2 0 01-2 2H6a2 2 0 01-2-2V12.7l12 8 12-8z" fill="currentColor"></path></svg>
